!!!COM:	Josquin des Pres?
**kern	**kern
*part2	*part1
*staff2	*staff1
*clefGv2	*clefG2
*k[]	*k[]
*M2/1	*M2/1
=1-	=1-
[0c	1c
.	[1e
=2	=2
0c_	2e]
.	2f
.	1g
=3	=3
0c]	1c
.	1g
=4	=4
0d	1.f
.	4e
.	4d
=5	=5
[0e	0c
=6	=6
0e]	1r
.	[1cc
=7	=7
0c	2cc]
.	2dd
.	1ee
=8	=8
[0d	2dd
.	2.ff
.	4ee
.	[2dd
=9	=9
0d]	4dd]
.	4cc
.	2a
.	1b
=10	=10
1.c	1cc
.	2a
4B	2cc
4A	.
=11	=11
1.G	2b
.	1g
2A	4f
.	4e
=12	=12
1B	2d
.	2.g
[1c	.
.	4f
.	[2e
=13	=13
2c]	2e]
4B	4d
4A	4c
1B	1d
=14	=14
[0c	0e
=15	=15
0c]	0c
==	==
*-	*-
